assets/icons/qvision/settings_input_composite.svg

<svg xmlns="http://www.w3.org/2000/svg" height="24" viewBox="0 0 24 24" width="24"><path d="M0 0h24v24H0z" fill="none"/><path d="M5 2c0-.55-.45-1-1-1s-1 .45-1 1v4H1v6h6V6H5V2zm4 14c0 1.3.84 2.4 2 2.82V23h2v-4.18c1.16-.41 2-1.51 2-2.82v-2H9v2zm-8 0c0 1.3.84 2.4 2 2.82V23h2v-4.18C6.16 18.4 7 17.3 7 16v-2H1v2zM21 6V2c0-.55-.45-1-1-1s-1 .45-1 1v4h-2v6h6V6h-2zm-8-4c0-.55-.45-1-1-1s-1 .45-1 1v4H9v6h6V6h-2V2zm4 14c0 1.3.84 2.4 2 2.82V23h2v-4.18c1.16-.41 2-1.51 2-2.82v-2h-6v2z"/></svg>

<svg width="24" height="24" viewBox="0 0 24 24" fill="none" xmlns="http://www.w3.org/2000/svg">
<g clip-path="url(#clip0_147_4723)">
<path d="M5 2C5 1.45 4.55 1 4 1C3.45 1 3 1.45 3 2V6H1V12H7V6H5V2ZM9 16C9 17.3 9.84 18.4 11 18.82V23H13V18.82C14.16 18.41 15 17.31 15 16V14H9V16ZM1 16C1 17.3 1.84 18.4 3 18.82V23H5V18.82C6.16 18.4 7 17.3 7 16V14H1V16ZM21 6V2C21 1.45 20.55 1 20 1C19.45 1 19 1.45 19 2V6H17V12H23V6H21ZM13 2C13 1.45 12.55 1 12 1C11.45 1 11 1.45 11 2V6H9V12H15V6H13V2ZM17 16C17 17.3 17.84 18.4 19 18.82V23H21V18.82C22.16 18.41 23 17.31 23 16V14H17V16Z" fill="#323232"/>
</g>
<defs>
<clipPath id="clip0_147_4723">
<rect width="24" height="24" fill="white"/>
</clipPath>
</defs>
</svg>
